X:105
T:Eddie Kelly's
M:6/8
L:1/8
Q:120
S:THSP
R:jig
K:Em
"Em"BEF G2A|Bee edc|~B3 GAB|"D"AFD AFD|
"Em"BEF G2A|Bee edc|~B3 GAB|1 "D"AFD "Em"E2c:|2 "D"AFD "Em"E2f||:
"Em"gfe fed|Bee Bee|gfe fed|"D"B^cd "Em"e2f|
gfe fed|Bee Bee|gfe fed|1 "D"B^cd "Em"e2f:|2 "D"B^cd "Em"ed=c|]
